!!!COM: Palestrina, Giovanni Perluigi da
!!!OPR: Missa O magnum mysterium
!!!OMD: Credo
!!!OTL: Confiteor
**kern	**kern	**kern	**kern	**kern
*Ibass	*Itenor	*Icalto	*Icalto	*Icant
!Bassus	!Tenor	!Altus 2	!Altus 1	!Cantus
*clefF4	*clefGv2	*clefG2	*clefG2	*clefG2
*k[]	*k[]	*k[]	*k[]	*k[]
*E:phr	*E:phr	*E:phr	*E:phr	*E:phr
*M4/2	*M4/2	*M4/2	*M4/2	*M4/2
=188	=188	=188	=188	=188
[0C	2c	0c	[0e	1g
.	2G	.	.	.
.	2G	.	.	2r
.	2G	.	.	2g
=189	=189	=189	=189	=189
0C]	2.c	2r	1e]	2g
.	.	2e	.	2g
.	4B	.	.	.
.	2A	2e	2r	2.cc
.	2G	2e	2c	.
.	.	.	.	4b
=190	=190	=190	=190	=190
0r	2F	2f	2c	2a
.	2C	2e	2c	2g
.	4D	2d	2f	2b-
.	4E	.	.	.
.	4F	2d	2f	2a
.	4G	.	.	.
=191	=191	=191	=191	=191
0r	4A	1c	2e	2a
.	4B	.	.	.
.	1c	.	2e	4g
.	.	.	.	4f
.	.	2G	1d	1g
.	2B	[2G	.	.
=192	=192	=192	=192	=192
1.C	2.c	2G]	1g	0e
.	.	2G	.	.
.	8B	.	.	.
.	8A	.	.	.
.	1G	2.c	2r	.
2C	.	.	[2c	.
.	.	4B	.	.
=193	=193	=193	=193	=193
2.F	1r	1A	2c]	0r
.	.	.	2c	.
4E	.	.	.	.
2D	2r	2A	2f	.
2C	[2G	2c	2e	.
=194	=194	=194	=194	=194
2BB	2G]	2d	2d	0r
2C	2G	1e	2c	.
1AA	[1c	.	2e	.
.	.	4d	2f#	.
.	.	4c	.	.
=195	=195	=195	=195	=195
1GG	2c]	2e	1g	2r
.	2B	2d	.	1g
1r	2.c	2r	1e	.
.	.	[2c	.	2g
.	4B	.	.	.
=196	=196	=196	=196	=196
0r	2.A	2c]	2r	2.cc
.	.	2c	1c	.
.	4G	.	.	4b
.	2F	2f	.	[1a
.	2A	2e	2c	.
=197	=197	=197	=197	=197
0r	2D	2d	2f	2a]
.	2E	2B	2e	2g
.	[1F	2A	2d	[1f
.	.	2A	2c	.
=198	=198	=198	=198	=198
0r	1F]	1a	2d	2f]
.	.	.	1c	2e
.	1G	[1g	.	1d
.	.	.	2B	.
=199	=199	=199	=199	=199
0C	2r	1g]	1c	1e
.	1G	.	.	.
.	.	1e	1c	1g
.	[2E	.	.	.
=200	=200	=200	=200	=200
1AA	2E]	1e	1c	1a
.	2.A	.	.	.
1E	.	1e	1B	1b
.	8G	.	.	.
.	8F#	.	.	.
.	2G#	.	.	.
=201	=201	=201	=201	=201
1AA	1A	1e	2A	1cc#
.	.	.	1a	.
1r	2.d	2.f#	.	2.dd
.	.	.	2a	.
.	4d	4f#	.	4dd
=202	=202	=202	=202	=202
0r	2d	2f#	2a	2dd
.	2B	2g	2d	2dd
.	2A	2a	2e	2cc
.	2G	2d	[2g	2b
=203	=203	=203	=203	=203
0r	0c	2e	2g]	1cc
.	.	2a	1f	.
.	.	1g	.	2cc
.	.	.	2e	[2cc
=204	=204	=204	=204	=204
1r	1F	2.a	2f	4cc]
.	.	.	.	4b
.	.	.	2.c	2.a
.	.	8g	.	.
.	.	8f	.	.
2r	2.c	1e	.	.
.	.	.	4d	4g
2C	.	.	2e	[2g
.	4B	.	.	.
=205	=205	=205	=205	=205
2D	1A	0r	2.d	4g]
.	.	.	.	8f
.	.	.	.	8e
2D	.	.	.	2f#
.	.	.	4c	.
4E	2G	.	1B	1g
4F	.	.	.	.
4G	2G	.	.	.
4E	.	.	.	.
=206	=206	=206	=206	=206
2F	2A	1c	0r	0r
2A	2A	.	.	.
1G	4B	2d	.	.
.	4c	.	.	.
.	4d	2d	.	.
.	4B	.	.	.
=207	=207	=207	=207	=207
1E	2c	4e	0r	0r
.	.	4f	.	.
.	2.B	4g	.	.
.	.	4e	.	.
2D	.	2f	.	.
.	4A	.	.	.
2C	[2c	2e	.	.
=208	=208	=208	=208	=208
2.G	2c]	2d	1r	0r
.	2B	2.e	.	.
4F	.	.	.	.
2E	2G	.	1c	.
.	.	4d	.	.
2F	2A	[2c	.	.
=209	=209	=209	=209	=209
1D	1F	2c]	2d	1r
.	.	2B	2d	.
1C	1G	2c	4e	2r
.	.	.	4f	.
.	.	2e	4g	2g
.	.	.	4e	.
=210	=210	=210	=210	=210
0r	1r	2d	2f	2a
.	.	2c	2e	2a
.	1G	[1g	1d	4b
.	.	.	.	4cc
.	.	.	.	4dd
.	.	.	.	4b
=211	=211	=211	=211	=211
1r	2c	1g]	2e	2cc
.	2G	.	2d	2b
2r	2d	1r	2f	2a
2C	2e	.	[2g	2cc
=212	=212	=212	=212	=212
2D	2.d	0r	4g]	2b
.	.	.	4f	.
2D	.	.	2f	1a
.	4c	.	.	.
1E	1B	.	2.e	.
.	.	.	.	2g#
.	.	.	4d	.
=213	=213	=213	=213	=213
2.F	1.A	2r	4c	1a
.	.	.	4B	.
.	.	2c	4A	.
4E	.	.	4G	.
1D	.	2d	1F	1r
.	2B	2d	.	.
=214	=214	=214	=214	=214
2C	2c	4e	1G	1g
.	.	4f	.	.
2E	2.B	4g	.	.
.	.	4e	.	.
2D	.	2f	1r	2a
.	4A	.	.	.
2C	[2A	2e	.	2a
=215	=215	=215	=215	=215
1BB	2A]	2d	1r	4b
.	.	.	.	4cc
.	2G#	2d	.	4dd
.	.	.	.	4b
1AA	2A	2f	2r	1cc
.	2A	[2e	2c	.
=216	=216	=216	=216	=216
0r	2G	4e]	2d	2b
.	.	4d	.	.
.	2F	1d	2d	2a
.	1E	.	4e	2g
.	.	.	4f	.
.	.	2c#	4g	2e
.	.	.	4e	.
=217	=217	=217	=217	=217
1r	4D	1d	2f	2.a
.	4E	.	.	.
.	4F	.	2f	.
.	4G	.	.	4b
2r	2A	2r	2e	1cc
2C	2E	[2g	2e	.
=218	=218	=218	=218	=218
2D	1r	4g]	2.d	2b
.	.	4f	.	.
2D	.	2f	.	2.a
.	.	.	4c	.
1E	2r	2.e	1B	.
.	.	.	.	8g
.	.	.	.	8f#
.	[2e	.	.	2g#
.	.	4d	.	.
=219	=219	=219	=219	=219
1AA	4e]	4c	[0A	0a
.	4d	4B	.	.
.	4c	4A	.	.
.	4B	4G	.	.
2.D	4A	2F	.	.
.	4G	.	.	.
.	4F	[2f	.	.
4E	4E	.	.	.
=220	=220	=220	=220	=220
2F	2D	2f]	1A]	2r
2C	2E	1e	.	2.a
1D	1F	.	2r	.
.	.	.	.	4g
.	.	2d	[2A	4a
.	.	.	.	4b
=221	=221	=221	=221	=221
0AA	1E	[0e	4A]	2.cc
.	.	.	4G#	.
.	.	.	4A	.
.	.	.	4B	4b
.	1A	.	1c	1a
=222	=222	=222	=222	=222
[0E	[0G#	1e_	[0B	[0b
.	.	1e_	.	.
=223	=223	=223	=223	=223
0E]	0G#]	0e]	0B]	0b]
==	==	==	==	==
*-	*-	*-	*-	*-
!!!CDT: 1525/^1526/-1594/2/2
!!!OCY: Italia
!!!AGN: Mass (Parody)
!!!AST: renaissance, vocal
!!!ASW: Motet 1569 (Palestrina)
!!!PWK: Masses, Book 4
!!!RNB: Cadence finals: A,C,G,F
!!!YOR: Le Opere Complete, v. 10, p. 150
!!!YOO: Rome, Italy: Fratelli Scalera
!!!END: 1992//
!!!EED: John Miller
!!!YEC: Copyright 2000, John Miller
!!!YEN: United States of America
!!!YEM: Rights to all derivative electronic formats reserved.
!!!YEM: Refer to licensing agreement for further details.
!!!YEM: This file must be accompanied by the licensing agreement.
!!!YEM: A copy of the licensing agreement may be found at http://www.music-cog.ohio-state.edu/HumdrumDatabases/Palestrina/license.txt
!!!EMD: converted to Humdrum by Bret Aarden
